X: 222
T: A Stranger in Cork
B: O'Neill's 222
N: "Moderate"
N: "Collected by J.O'Brien"
Z: 1997 by John Chambers <jc@trillian.mit.edu>
M: 3/4
L: 1/8
K:G
(dc) \
| (B2 G2 E2) | (D2 B,2 D2) | (E2 G2) .A2 | G4 D2 \
| (G2 B2 d2) | d2 B2 d2 | (e2 d2) .B2 | A4 D2 |
| (G2 B2 d2) | d2 B2 d2 | (e2 d2) .B2 | A4 (dc) \
| (B2 G2 E2) | (D2 B,2 D2) | (E2 G2) .G2 | G4 ||


